usr/share/icons/biglinux-icons-material/scalable/apps/ktnef.svg

<?xml version="1.0" encoding="UTF-8" standalone="no"?>
<svg
   width="24"
   height="24"
   viewBox="0 0 6.349875 6.349875"
   version="1.1"
   id="svg7"
   sodipodi:docname="ktnef.svg"
   inkscape:version="1.3 (0e150ed6c4, 2023-07-21)"
   xmlns:inkscape="http://www.inkscape.org/namespaces/inkscape"
   xmlns:sodipodi="http://sodipodi.sourceforge.net/DTD/sodipodi-0.dtd"
   xmlns="http://www.w3.org/2000/svg"
   xmlns:svg="http://www.w3.org/2000/svg">
  <defs
     id="defs7">
    <radialGradient
       fx="0"
       fy="0"
       cx="0"
       cy="0"
       r="1"
       gradientUnits="userSpaceOnUse"
       gradientTransform="matrix(0,5.8207185,-5.8207185,0,12.17059,0.26458211)"
       spreadMethod="pad"
       id="radialGradient2">
      <stop
         style="stop-opacity:1;stop-color:#737373"
         offset="0"
         id="stop1" />
      <stop
         style="stop-opacity:1;stop-color:#424242"
         offset="1"
         id="stop2" />
    </radialGradient>
    <radialGradient
       fx="0"
       fy="0"
       cx="0"
       cy="0"
       r="1"
       gradientUnits="userSpaceOnUse"
       gradientTransform="matrix(0,16.5,-16.5,0,8.999651,0.749985)"
       spreadMethod="pad"
       id="radialGradient868-3">
      <stop
         style="stop-opacity:1;stop-color:#fafafa"
         offset="0"
         id="stop864-6" />
      <stop
         style="stop-opacity:1;stop-color:#c0c0c0"
         offset="1"
         id="stop866-7" />
    </radialGradient>
  </defs>
  <sodipodi:namedview
     id="namedview7"
     pagecolor="#ffffff"
     bordercolor="#000000"
     borderopacity="0.25"
     inkscape:showpageshadow="2"
     inkscape:pageopacity="0.0"
     inkscape:pagecheckerboard="0"
     inkscape:deskcolor="#d1d1d1"
     inkscape:zoom="17.920737"
     inkscape:cx="16.768283"
     inkscape:cy="17.995911"
     inkscape:window-width="2560"
     inkscape:window-height="998"
     inkscape:window-x="0"
     inkscape:window-y="0"
     inkscape:window-maximized="1"
     inkscape:current-layer="svg7" />
  <g
     id="g854"
     transform="matrix(0.35277083,0,0,0.35277083,-1.1970624e-4,-9.3206515e-6)">
    <g
       id="g856">
      <g
         id="g862">
        <path
           d="m 7.195,0.836 c 0.09,0 0.176,-0.012 0.258,-0.035 1.078,-0.071 2.156,-0.067 3.231,0.008 0.976,0.078 1.921,0.289 2.836,0.636 1.519,0.625 2.558,1.711 3.121,3.254 0.316,0.93 0.507,1.887 0.566,2.867 0.078,1.235 0.051,2.465 -0.086,3.696 -0.105,0.863 -0.328,1.691 -0.672,2.488 -0.637,1.383 -1.672,2.336 -3.101,2.859 C 12.191,17 11,17.207 9.773,17.227 8.398,17.301 7.035,17.195 5.684,16.918 3.203,16.367 1.668,14.852 1.09,12.375 0.844,11.262 0.73,10.133 0.754,8.992 0.727,7.781 0.855,6.582 1.141,5.402 1.75,3.09 3.219,1.656 5.547,1.102 6.09,0.969 6.641,0.879 7.195,0.836 Z"
           style="fill:url(#radialGradient868-3);fill-rule:evenodd;stroke:none"
           id="path870" />
      </g>
    </g>
  </g>
  <g
     id="g12"
     transform="matrix(0.24998231,0,0,0.24998231,6.617795,0.32946869)">
    <path
       d="m -19.857917,7.4373576 h 12.1709991 c 0.44,0 0.794,0.358 0.794,0.802 v 8.5580004 a 0.796,0.796 0 0 1 -0.794,0.803 H -19.856917 a 0.792,0.8 0 0 1 -0.795,-0.803 V 8.2393576 c 0,-0.445 0.355,-0.802 0.794,-0.802 z"
       fill="#2a7e98"
       opacity="0.8"
       style="paint-order:markers stroke fill"
       id="path7-7" />
    <path
       d="m -18.534797,5.1649976 c -0.586309,0 -1.05832,0.4720107 -1.05832,1.05832 v 2.1772288 l 5.820759,4.2084096 5.8207601,-4.2084096 V 6.2233176 c 0,-0.5863093 -0.472011,-1.05832 -1.05832,-1.05832 z"
       opacity="0.03"
       style="stroke-width:0.26458;paint-order:stroke fill markers"
       id="path8" />
    <path
       d="m -7.0579175,7.7533576 a 0.788,0.797 0 0 1 0.165,0.486 v 8.5580004 a 0.796,0.796 0 0 1 -0.794,0.803 H -19.856916 a 0.788,0.797 0 0 1 -0.531,-0.208 z"
       fill="#26a4ca"
       opacity="0.5"
       style="paint-order:markers stroke fill"
       id="path9" />
    <path
       d="m -18.553847,5.4295776 c -0.429413,0 -0.775219,0.3579767 -0.775219,0.8024711 V 8.591044 l 5.556708,4.017912 5.5567091,-4.0176474 V 6.2323133 c 0,-0.4444944 -0.345806,-0.8024711 -0.775219,-0.8024711 z"
       fill="#ffffff"
       style="stroke-width:0.26458;paint-order:markers stroke fill"
       id="path10" />
    <path
       d="m -20.486917,7.7533576 a 0.788,0.797 0 0 0 -0.165,0.486 v 8.5580004 c 0,0.445 0.355,0.803 0.794,0.803 h 12.1709991 c 0.205,0 0.39,-0.08 0.53,-0.208 z"
       fill="#49bde3"
       opacity="0.8"
       style="paint-order:markers stroke fill"
       id="path11" />
    <path
       d="m -20.487133,7.7539129 a 0.78791924,0.7963858 0 0 0 -0.03254,0.045508 l 13.3163101,9.6278021 c 0.01535,-0.01217 0.03228,-0.02222 0.04657,-0.03519 L -20.487397,7.7539129 Z"
       fill="#ffffff"
       opacity="0.15"
       style="stroke-width:0.26458;paint-order:markers stroke fill"
       id="path12" />
  </g>
  <path
     d="m 4.5719604,3.5032893 c 0.077495,0.077494 0.077495,0.2027357 0,0.2804802 L 3.9655033,4.3902266 a 0.26398133,0.26398133 0 0 1 -0.3739736,0 0.26398133,0.26398133 0 0 1 0,-0.3742235 L 4.1977369,3.409546 4.2444839,3.456293 3.6382767,4.0627502 a 0.197986,0.197986 0 0 0 0,0.2807301 c 0.077495,0.077495 0.2027357,0.077495 0.2804802,0 L 4.5252137,3.7370228 A 0.13221962,0.13221962 0 1 0 4.3382269,3.550036 L 3.7317698,4.1564931 a 0.06599533,0.06599533 0 0 0 0,0.093493 c 0.025998,0.025748 0.067495,0.025748 0.093493,0 L 4.3849732,3.6902757 4.4317199,3.7370227 3.8720095,4.2967331 A 0.13230803,0.13230803 0 1 1 3.6850231,4.1094964 L 4.2914802,3.5032893 a 0.197986,0.197986 0 0 1 0.2804802,0"
     fill="#ffffff"
     id="path7"
     style="stroke-width:0.999999" />
</svg>

<svg xmlns="http://www.w3.org/2000/svg" width="24" height="24" viewBox="0 0 6.35 6.35"><defs><radialGradient id="a" cx="0" cy="0" r="1" fx="0" fy="0" gradientTransform="matrix(0 16.5 -16.5 0 9 .75)" gradientUnits="userSpaceOnUse" spreadMethod="pad"><stop offset="0" style="stop-opacity:1;stop-color:#fafafa"/><stop offset="1" style="stop-opacity:1;stop-color:silver"/></radialGradient></defs><path d="M7.195.836c.09 0 .176-.012.258-.035a23.86 23.86 0 0 1 3.231.008 10.26 10.26 0 0 1 2.836.636c1.519.625 2.558 1.711 3.121 3.254.316.93.507 1.887.566 2.867a21.227 21.227 0 0 1-.086 3.696 8.976 8.976 0 0 1-.672 2.488c-.637 1.383-1.672 2.336-3.101 2.859a11.693 11.693 0 0 1-3.575.618 15.998 15.998 0 0 1-4.089-.309c-2.481-.551-4.016-2.066-4.594-4.543a14.244 14.244 0 0 1-.336-3.383c-.027-1.211.101-2.41.387-3.59.609-2.312 2.078-3.746 4.406-4.3A10.27 10.27 0 0 1 7.195.836Z" style="fill:url(#a);fill-rule:evenodd;stroke:none" transform="scale(.35277)"/><path fill="#2a7e98" d="M-19.858 7.437h12.171c.44 0 .794.358.794.802v8.558a.796.796 0 0 1-.794.803h-12.17a.792.8 0 0 1-.795-.803V8.24c0-.445.355-.802.794-.802z" opacity=".8" style="paint-order:markers stroke fill" transform="translate(6.618 .33) scale(.24998)"/><path d="M-18.535 5.165c-.586 0-1.058.472-1.058 1.058v2.178l5.82 4.208 5.821-4.208V6.223c0-.586-.472-1.058-1.058-1.058z" opacity=".03" style="stroke-width:.26458;paint-order:stroke fill markers" transform="translate(6.618 .33) scale(.24998)"/><path fill="#26a4ca" d="M-7.058 7.753a.788.797 0 0 1 .165.486v8.558a.796.796 0 0 1-.794.803h-12.17a.788.797 0 0 1-.53-.208z" opacity=".5" style="paint-order:markers stroke fill" transform="translate(6.618 .33) scale(.24998)"/><path fill="#fff" d="M-18.554 5.43a.788.788 0 0 0-.775.802v2.359l5.557 4.018 5.556-4.018V6.232a.788.788 0 0 0-.775-.802z" style="stroke-width:.26458;paint-order:markers stroke fill" transform="translate(6.618 .33) scale(.24998)"/><path fill="#49bde3" d="M-20.487 7.753a.788.797 0 0 0-.165.486v8.558c0 .445.355.803.794.803h12.171c.205 0 .39-.08.53-.208z" opacity=".8" style="paint-order:markers stroke fill" transform="translate(6.618 .33) scale(.24998)"/><path fill="#fff" d="M-20.487 7.754a.788.796 0 0 0-.033.045l13.317 9.628c.015-.012.032-.022.046-.035l-13.33-9.638Z" opacity=".15" style="stroke-width:.26458;paint-order:markers stroke fill" transform="translate(6.618 .33) scale(.24998)"/><path fill="#fff" d="M4.572 3.503a.198.198 0 0 1 0 .28l-.606.607a.264.264 0 0 1-.374 0 .264.264 0 0 1 0-.374l.606-.606.046.046-.606.607a.198.198 0 0 0 0 .28.198.198 0 0 0 .28 0l.607-.606a.132.132 0 1 0-.187-.187l-.606.606a.066.066 0 0 0 0 .094.066.066 0 0 0 .093 0l.56-.56.047.047-.56.56a.132.132 0 1 1-.187-.188l.606-.606a.198.198 0 0 1 .281 0" style="stroke-width:.999999"/></svg>
